media/icons/icon-link-grey.svg

<svg width="16" height="8" viewBox="0 0 16 8" xmlns="http://www.w3.org/2000/svg" xmlns:sketch="http://www.bohemiancoding.com/sketch/ns"><title>icon-link</title><desc>Created with Sketch.</desc><path d="M12.688 0h-2.021s1.083.708 1.317 2h.704c.733 0 1.313.579 1.313 1.313v1.333c0 .733-.579 1.354-1.313 1.354h-4.667c-.733 0-1.354-.621-1.354-1.354v-1.313h-2v1.313c0 .479.104.938.288 1.354.525 1.175 1.704 2 3.067 2h4.667c1.842 0 3.313-1.513 3.313-3.354v-1.333c0-1.842-1.471-3.313-3.313-3.313zm-1.621 2c-.504-1.179-1.671-2-3.046-2h-4.667c-1.842 0-3.354 1.471-3.354 3.313v1.333c0 1.842 1.512 3.354 3.354 3.354h1.979s-1.075-.708-1.338-2h-.642c-.733 0-1.354-.621-1.354-1.354v-1.333c0-.733.621-1.313 1.354-1.313h4.667c.733 0 1.313.579 1.313 1.313v1.354h2v-1.354c0-.467-.096-.913-.267-1.313z" sketch:type="MSShapeGroup" fill="#57626C"></path></svg>

<svg width="16px" height="8px" viewBox="0 0 16 8" version="1.1" xmlns="http://www.w3.org/2000/svg" xmlns:xlink="http://www.w3.org/1999/xlink">
    <!-- Generator: Sketch 43.2 (39069) - http://www.bohemiancoding.com/sketch -->
    <desc>Created with Sketch.</desc>
    <defs></defs>
    <g id="Page-1" stroke="none" stroke-width="1" fill="none" fill-rule="evenodd">
        <g id="icon-link" transform="translate(-30.000000, -34.000000)" fill-rule="nonzero" fill="#57626C">
            <g transform="translate(30.000000, 34.000000)" id="Group">
                <g>
                    <path d="M12.688,0 L10.667,0 C10.667,0 11.75,0.708 11.984,2 L12.688,2 C13.421,2 14.001,2.579 14.001,3.313 L14.001,4.646 C14.001,5.379 13.422,6 12.688,6 L8.021,6 C7.288,6 6.667,5.379 6.667,4.646 L6.667,3.333 L4.667,3.333 L4.667,4.646 C4.667,5.125 4.771,5.584 4.955,6 C5.48,7.175 6.659,8 8.022,8 L12.689,8 C14.531,8 16.002,6.487 16.002,4.646 L16.002,3.313 C16.002,1.471 14.531,-4.4408921e-16 12.689,-4.4408921e-16 L12.688,0 Z M11.067,2 C10.563,0.821 9.396,-4.4408921e-16 8.021,-4.4408921e-16 L3.354,-4.4408921e-16 C1.512,-4.4408921e-16 0,1.471 0,3.313 L0,4.646 C0,6.488 1.512,8 3.354,8 L5.333,8 C5.333,8 4.258,7.292 3.995,6 L3.353,6 C2.62,6 1.999,5.379 1.999,4.646 L1.999,3.313 C1.999,2.58 2.62,2 3.353,2 L8.02,2 C8.753,2 9.333,2.579 9.333,3.313 L9.333,4.667 L11.333,4.667 L11.333,3.313 C11.333,2.846 11.237,2.4 11.066,2 L11.067,2 Z" id="Shape"></path>
                </g>
            </g>
        </g>
    </g>
</svg>
